src/vs/editor/contrib/suggest/media/Constant_16x_inverse.svg

<svg viewBox="0 0 16 16" xmlns="http://www.w3.org/2000/svg"><path d="m16 16h-16v-16h16z" fill="#252526" opacity="0"/><path d="m2.879 14-1.879-1.879v-8.242l1.879-1.879h10.242l1.879 1.879v8.242l-1.879 1.879z" fill="#252526"/><path d="m12.293 4h-8.586l-.707.707v6.586l.707.707h8.586l.707-.707v-6.586zm-1.293 6h-6v-1h6zm0-3h-6v-1h6z" fill="#2b282e"/><path d="m12.707 13h-9.414l-1.293-1.293v-7.414l1.293-1.293h9.414l1.293 1.293v7.414zm-9-1h8.586l.707-.707v-6.586l-.707-.707h-8.586l-.707.707v6.586z" fill="#c5c5c5"/><path d="m11 7h-6v-1h6zm0 2h-6v1h6z" fill="#75beff"/></svg>

<svg xmlns="http://www.w3.org/2000/svg" viewBox="0 0 16 16"><style>.icon-canvas-transparent{opacity:0;fill:#252526}.icon-vs-out{fill:#252526}.icon-vs-bg{fill:#c5c5c5}.icon-vs-fg{fill:#2b282e}.icon-vs-action-blue{fill:#75beff}</style><path class="icon-canvas-transparent" d="M16 16H0V0h16v16z" id="canvas"/><path class="icon-vs-out" d="M2.879 14L1 12.121V3.879L2.879 2h10.242L15 3.879v8.242L13.121 14H2.879z" id="outline"/><path class="icon-vs-fg" d="M12.293 4H3.707L3 4.707v6.586l.707.707h8.586l.707-.707V4.707L12.293 4zM11 10H5V9h6v1zm0-3H5V6h6v1z" id="iconFg"/><g id="iconBg"><path class="icon-vs-bg" d="M12.707 13H3.293L2 11.707V4.293L3.293 3h9.414L14 4.293v7.414L12.707 13zm-9-1h8.586l.707-.707V4.707L12.293 4H3.707L3 4.707v6.586l.707.707z"/><path class="icon-vs-action-blue" d="M11 7H5V6h6v1zm0 2H5v1h6V9z"/></g></svg>
